add.svg

<svg width="24" height="24" viewBox="0 0 24 24" fill="none" xmlns="http://www.w3.org/2000/svg">
<path d="M19 3H5C3.89 3 3 3.9 3 5V19C3 20.1 3.89 21 5 21H19C20.11 21 21 20.1 21 19V5C21 3.9 20.11 3 19 3ZM17 13H13V17H11V13H7V11H11V7H13V11H17V13Z" fill="#5f6368"/>
</svg>

<svg xmlns="http://www.w3.org/2000/svg" height="24" viewBox="0 0 24 24" width="24">
    <path d="M0 0h24v24H0V0z" fill="none"/>
    <!-- Circle Base (Green) -->
    <circle cx="12" cy="12" r="10" fill="#34A853"/>
    <!-- Plus Sign (White) -->
    <path d="M17 13h-4v4h-2v-4H7v-2h4V7h2v4h4v2z" fill="#FFFFFF"/>
</svg>
